X: 40953
T: Trip To Cootehall, The
R: reel
M: 4/4
K: Amixolydian
|:EA (3ABA A=cEF|G2DG BdGF|E~A3 GBd2|cdBd cABc|
A2eA fAeA|dggf gabg|aA (3ABA eAce|1 dB^GB A2AF:|2 dB^GB A2z^g||
|:a2eA cAec|d~g3 dgbg|aedB (3efg ec|dB^GB (3ABA Ac|
ea.af gedB|dcdB GBe^g|ae "cran"(3eee ceaf|1 gedB Ac (3ef^g:|2 gedB ABA^G||

